X:198
T:Lady Cordelia's Jigg. JJo8.198
B:J.Johnson Choice Collection Vol 8 1758
Z:vmp.Simon Wilson 2013 www.village-music-project.org.uk
M:6/8
L:1/8
N:Key sig given as one flat in MS
Q:3/8=100
K:Bb
|:"^key sig given as one flat in MS"B3F2f|edcd3|ge2fd2|ecB AGF|B3F2f|edcd3|bg2a2f|abgf3:|
|:c3F2f|edcd3|(c/d/e)c (g/a/b)B|(A/B/c)AF2E|DFB FBd|(g/a/b)gf2e|dcB FBA|B3B,3:|

